web/packages/design/src/ResourceIcon/assets/docker-dark.svg

<svg width="72" height="72" viewBox="0 0 72 72" fill="none" xmlns="http://www.w3.org/2000/svg">
<path d="M70.8288 30.8755C69.0634 29.6846 64.4255 29.1769 61.0537 30.0866C60.8723 26.7205 59.14 23.8835 55.9709 21.4099L54.7986 20.621L54.0168 21.8044C52.4807 24.1411 51.8333 27.256 52.0615 30.0876C52.2429 31.8322 52.8477 33.7926 54.0168 35.2154C49.6274 37.767 45.5825 37.1876 27.6664 37.1876H0.00622723C-0.0748408 41.2421 0.575837 49.0401 5.52419 55.3886C6.07033 56.0898 6.66981 56.7686 7.32049 57.4217C11.344 61.4591 17.4231 64.4201 26.5134 64.4276C40.3803 64.4404 52.2621 56.9279 59.4899 38.7654C61.8686 38.8049 68.1461 39.1919 71.2181 33.2432C71.2928 33.1427 72 31.6654 72 31.6654L70.8288 30.8765V30.8755ZM18.0577 26.6916H10.2795V34.4864H18.0577V26.6916ZM28.107 26.6916H20.3287V34.4864H28.107V26.6916ZM38.1562 26.6916H30.378V34.4864H38.1562V26.6916ZM48.2055 26.6916H40.4272V34.4864H48.2055V26.6916ZM8.01063 26.6916H0.230231V34.4864H8.0085V26.6916H8.01063ZM18.0599 16.8455H10.2816V24.6403H18.0599V16.8455ZM28.1091 16.8455H20.3308V24.6403H28.1091V16.8455ZM38.1584 16.8455H30.3801V24.6403H38.1584V16.8455ZM38.1552 7.00049H30.3769V14.7953H38.1552V7.00049Z" fill="white"/>
</svg>

<svg xmlns="http://www.w3.org/2000/svg" width="72" height="72" fill="none" viewBox="0 0 72 72"><path fill="#fff" d="M70.829 30.876c-1.766-1.191-6.403-1.7-9.775-.79-.182-3.365-1.914-6.202-5.083-8.676l-1.172-.789-.782 1.183c-1.536 2.337-2.184 5.452-1.956 8.284.182 1.744.787 3.705 1.956 5.127-4.39 2.552-8.434 1.973-26.35 1.973H.006c-.082 4.054.569 11.852 5.517 18.2q.82 1.053 1.796 2.034c4.024 4.037 10.103 6.998 19.193 7.006 13.867.012 25.75-7.5 32.977-25.663 2.379.04 8.656.427 11.728-5.522.075-.1.782-1.578.782-1.578zm-52.771-4.184H10.28v7.794h7.778zm10.049 0h-7.778v7.794h7.778zm10.05 0h-7.779v7.794h7.778zm10.049 0h-7.779v7.794h7.779zm-40.195 0H.23v7.794h7.778v-7.794zm10.049-9.846h-7.778v7.794h7.778zm10.05 0h-7.78v7.794h7.78zm10.048 0H30.38v7.794h7.778zM38.155 7h-7.778v7.795h7.778z"/></svg>
